src/variants/Plane/apps/scalable/wps-office-etmain.svg

<?xml version="1.0" encoding="UTF-8"?>
<svg width="64px" height="64px" viewBox="0 0 64 64" version="1.1" xmlns="http://www.w3.org/2000/svg" xmlns:xlink="http://www.w3.org/1999/xlink">
    <!-- Generator: Sketch 46.2 (44496) - http://www.bohemiancoding.com/sketch -->
    <title>wps-office-etmain</title>
    <desc>Created with Sketch.</desc>
    <defs>
        <linearGradient x1="50%" y1="0%" x2="50%" y2="100%" id="linearGradient-1">
            <stop stop-color="#92CF00" offset="0%"></stop>
            <stop stop-color="#57AC00" offset="100%"></stop>
        </linearGradient>
        <linearGradient x1="100%" y1="50%" x2="2.7555%" y2="50%" id="linearGradient-2">
            <stop stop-color="#F5F5F5" offset="0%"></stop>
            <stop stop-color="#A1E37D" offset="100%"></stop>
        </linearGradient>
    </defs>
    <g id="Page-1" stroke="none" stroke-width="1" fill="none" fill-rule="evenodd">
        <g id="wps-office-etmain">
            <g id="Group-2" transform="translate(6.000000, 5.000000)">
                <image id="Bitmap" x="-3" y="-2" width="60" height="60" xlink:href="data:image/png;base64,iVBORw0KGgoAAAANSUhEUgAAADwAAAA8CAYAAAA6/NlyAAAAAXNSR0IArs4c6QAAAb9JREFUaAXtm9tuwkAMRElLL6r4/z/lgZY29dlkzEat2ld2YktmhyVIezwOvDjTYYlpXVl63W3frZy7k/W6275J4AT4sGqt2r9dfV8KOOVXaJL4E/q4XHMA8jHyFPm67o2wAPceeY68Rv4LDSROAvwcCfBIwdkxjbMDTMjhXzsUYLn7EpovjhgwcP7PSLU5HD+g5TArX1CLc/FoAVwPzfmB30ALWG0xMjCAguZeltMbaAGz0s6jAwdCC92aPXhz2hUY6qdI7u0NNBvOwV/sWySd21jdgTFTP8atpfcADKgcnvYAjMv6rVr6mh3zwOXdtPTGy720dEIXcJbCVJTDpsYmVjmcpTAV5bCpsYlVDmcpTEU5bGpsYpXDWQpTUQ6bGptY5XCWwlSUw6bGJlY5nKUwFeWwqbGJVQ5nKUxFOWxqbGKVw1kKU1EOmxqbWOVwlsJUlMOmxiZWOZylMBVyWLPFppg5O52TeAAzPu8aejSgDV0Cy0wxD0lcIpk+1axxyGEDpo9ImPTEy6wJeKD5kODDHMZsO2O+qGvhgY33beCyDV2G5n5Ga9V+bA0ZAJKaiGddJky7td9DO0RzdgWZvwF9NkH7VCrSmAAAAABJRU5ErkJggg=="></image>
                <path d="M1.33333333,0 L44.4930676,0 L44.4930676,-9.32587341e-15 C44.8196198,-1.11260799e-14 45.1348179,0.119838092 45.378886,0.336787575 L53.5524851,7.60220899 L53.5524851,7.60220899 C53.8371363,7.85523224 54,8.21790433 54,8.59875475 L54,52.6666667 L54,52.6666667 C54,53.4030463 53.4030463,54 52.6666667,54 L1.33333333,54 L1.33333333,54 C0.596953667,54 -7.9799792e-16,53.4030463 -8.8817842e-16,52.6666667 L0,1.33333333 L0,1.33333333 C-9.01805001e-17,0.596953667 0.596953667,-5.30863065e-16 1.33333333,-6.66133815e-16 Z" id="Rectangle-118" fill="url(#linearGradient-1)"></path>
                <path d="M54,30.857053 L54,8.0474394 C54,7.64510515 53.8183253,7.26428364 53.5056181,7.01112947 L45.2120573,0.297023407 C44.9746787,0.104852012 44.6785211,-7.67347595e-14 44.3731059,-7.50510765e-14 L44.3731059,-6.75015599e-14 L1.33333333,-6.75015599e-14 L1.33333333,-6.83897383e-14 C0.596953667,-6.82544676e-14 -2.14064626e-14,0.596953667 -2.13162821e-14,1.33333333 L-2.13162821e-14,1.33333333 L-2.17690224e-14,27.5 L-2.13162821e-14,2.33333333 C-2.14064626e-14,1.59695367 0.596953667,1 1.33333333,1 L1.33333333,1 L44.3731059,1 L44.3731059,1 C44.6785211,1 44.9746787,1.10485201 45.2120573,1.29702341 L53.5056181,8.01112947 C53.8183253,8.26428364 54,8.64510515 54,9.0474394 L54,30.857053 Z" id="Combined-Shape" fill="#9AF300"></path>
                <path d="M54,29.857053 L54,52.6666667 C54,53.4030463 53.4030463,54 52.6666667,54 L1.33333333,54 C0.596953667,54 -2.211428e-14,53.4030463 -2.22044605e-14,52.6666667 L-2.17517202e-14,26.5 L-2.22044605e-14,51.6666667 C-2.211428e-14,52.4030463 0.596953667,53 1.33333333,53 L52.6666667,53 C53.4030463,53 54,52.4030463 54,51.6666667 L54,29.857053 Z" id="Combined-Shape" fill="#4B9000"></path>
            </g>
            <g id="Group" transform="translate(16.000000, 16.000000)" fill-rule="nonzero">
                <path d="M7,21 L7,12 L7.04125996,12 C7.18803288,12.5749061 7.70937344,13 8.33,13 L25,13 L25,12.5 L25,21.665 L25,21.33 C25,20.5954613 24.4045387,20 23.67,20 L7,20 L7,21 Z M30.67,32 L1.33,32 C0.595461283,32 -1.68640179e-15,31.4045387 -1.77635684e-15,30.67 L-1.77635684e-15,26.33 C-1.86631189e-15,25.5954613 0.595461283,25 1.33,25 L23.67,25 C24.4045387,25 25,24.4045387 25,23.67 L25,13 L30.67,13 C31.4045387,13 32,13.5954613 32,14.33 L32,30.67 C32,31.4045387 31.4045387,32 30.67,32 Z M7,9.33 L7,20 L1.33,20 C0.595461283,20 -1.68640179e-15,19.4045387 -1.77635684e-15,18.67 L-1.77635684e-15,2.33 L-1.77635684e-15,2.33 C-1.86631189e-15,1.59546128 0.595461283,1 1.33,1 L30.67,1 C31.4045387,1 32,1.59546128 32,2.33 L32,6.67 C32,7.40453872 31.4045387,8 30.67,8 L8.33,8 C7.59546128,8 7,8.59546128 7,9.33 Z" id="Combined-Shape" fill="#58AA00"></path>
                <path d="M7,20 L7,11 L7.04125996,11 C7.18803288,11.5749061 7.70937344,12 8.33,12 L25,12 L25,11.5 L25,20.665 L25,20.33 C25,19.5954613 24.4045387,19 23.67,19 L7,19 L7,20 Z" id="Combined-Shape" fill="url(#linearGradient-2)"></path>
                <path d="M30.67,31 L1.33,31 L1.33,31 C0.595461283,31 8.99550489e-17,30.4045387 0,29.67 L0,25.33 L0,25.33 C-8.99550489e-17,24.5954613 0.595461283,24 1.33,24 L23.67,24 L23.67,24 C24.4045387,24 25,23.4045387 25,22.67 L25,12 L30.67,12 L30.67,12 C31.4045387,12 32,12.5954613 32,13.33 L32,29.67 L32,29.67 C32,30.4045387 31.4045387,31 30.67,31 Z M7,8.33 L7,19 L1.33,19 L1.33,19 C0.595461283,19 8.99550489e-17,18.4045387 0,17.67 L0,1.33 L0,1.33 C-8.99550489e-17,0.595461283 0.595461283,7.2965563e-14 1.33,7.28306304e-14 L30.67,7.28306304e-14 L30.67,7.28306304e-14 C31.4045387,7.46529022e-14 32,0.595461283 32,1.33 L32,5.67 L32,5.67 C32,6.40453872 31.4045387,7 30.67,7 L8.33,7 L8.33,7 C7.59546128,7 7,7.59546128 7,8.33 Z" id="Combined-Shape" fill="#FFFFFF"></path>
                <path d="M30.67,31 L1.33,31 L1.33,31 C0.595461283,31 8.99550489e-17,30.4045387 0,29.67 L0,26.33 L0,26.33 C-8.99550489e-17,25.5954613 0.595461283,25 1.33,25 L23.67,25 L23.67,25 C24.4045387,25 25,24.4045387 25,23.67 L25,13 L30.67,13 L30.67,13 C31.4045387,13 32,13.5954613 32,14.33 L32,29.67 L32,29.67 C32,30.4045387 31.4045387,31 30.67,31 Z M7,8.33 L7,19 L1.33,19 L1.33,19 C0.595461283,19 8.99550489e-17,18.4045387 0,17.67 L0,2.33 L0,2.33 C-8.99550489e-17,1.59546128 0.595461283,1 1.33,1 L30.67,1 L30.67,1 C31.4045387,1 32,1.59546128 32,2.33 L32,5.67 L32,5.67 C32,6.40453872 31.4045387,7 30.67,7 L8.33,7 L8.33,7 C7.59546128,7 7,7.59546128 7,8.33 Z" id="Combined-Shape" fill="#F7FFED"></path>
            </g>
        </g>
    </g>
</svg>

<?xml version="1.0" encoding="UTF-8" standalone="no"?>
<svg
   xmlns:dc="http://purl.org/dc/elements/1.1/"
   xmlns:cc="http://creativecommons.org/ns#"
   xmlns:rdf="http://www.w3.org/1999/02/22-rdf-syntax-ns#"
   xmlns:svg="http://www.w3.org/2000/svg"
   xmlns="http://www.w3.org/2000/svg"
   xmlns:xlink="http://www.w3.org/1999/xlink"
   xmlns:sodipodi="http://sodipodi.sourceforge.net/DTD/sodipodi-0.dtd"
   xmlns:inkscape="http://www.inkscape.org/namespaces/inkscape"
   width="64px"
   height="64px"
   viewBox="0 0 64 64"
   version="1.1"
   id="svg35"
   sodipodi:docname="wps-office2019-etmai.svg"
   inkscape:version="0.92.4 5da689c313, 2019-01-14">
  <metadata
     id="metadata39">
    <rdf:RDF>
      <cc:Work
         rdf:about="">
        <dc:format>image/svg+xml</dc:format>
        <dc:type
           rdf:resource="http://purl.org/dc/dcmitype/StillImage" />
      </cc:Work>
    </rdf:RDF>
  </metadata>
  <sodipodi:namedview
     pagecolor="#ffffff"
     bordercolor="#666666"
     borderopacity="1"
     objecttolerance="10"
     gridtolerance="10"
     guidetolerance="10"
     inkscape:pageopacity="0"
     inkscape:pageshadow="2"
     inkscape:window-width="640"
     inkscape:window-height="480"
     id="namedview37"
     showgrid="false"
     inkscape:zoom="11.84375"
     inkscape:cx="17.899736"
     inkscape:cy="31.662269"
     inkscape:current-layer="svg35" />
  <!-- Generator: Sketch 46.2 (44496) - http://www.bohemiancoding.com/sketch -->
  <title
     id="title2">wps-office-etmain</title>
  <desc
     id="desc4">Created with Sketch.</desc>
  <defs
     id="defs16">
    <linearGradient
       x1="50%"
       y1="0%"
       x2="50%"
       y2="100%"
       id="linearGradient-1">
      <stop
         stop-color="#92CF00"
         offset="0%"
         id="stop6" />
      <stop
         stop-color="#57AC00"
         offset="100%"
         id="stop8" />
    </linearGradient>
    <linearGradient
       x1="100%"
       y1="50%"
       x2="2.7555%"
       y2="50%"
       id="linearGradient-2">
      <stop
         stop-color="#F5F5F5"
         offset="0%"
         id="stop11" />
      <stop
         stop-color="#A1E37D"
         offset="100%"
         id="stop13" />
    </linearGradient>
  </defs>
  <g
     id="Page-1"
     style="display:inline;fill:none;fill-rule:evenodd;stroke:none;stroke-width:1">
    <g
       id="wps-office-etmain">
      <g
         id="Group-2"
         transform="translate(6,5)">
        <image
           id="Bitmap"
           x="-3"
           y="-2"
           width="60"
           height="60"
           xlink:href="data:image/png;base64,iVBORw0KGgoAAAANSUhEUgAAADwAAAA8CAYAAAA6/NlyAAAAAXNSR0IArs4c6QAAAb9JREFUaAXtm9tuwkAMRElLL6r4/z/lgZY29dlkzEat2ld2YktmhyVIezwOvDjTYYlpXVl63W3frZy7k/W6275J4AT4sGqt2r9dfV8KOOVXaJL4E/q4XHMA8jHyFPm67o2wAPceeY68Rv4LDSROAvwcCfBIwdkxjbMDTMjhXzsUYLn7EpovjhgwcP7PSLU5HD+g5TArX1CLc/FoAVwPzfmB30ALWG0xMjCAguZeltMbaAGz0s6jAwdCC92aPXhz2hUY6qdI7u0NNBvOwV/sWySd21jdgTFTP8atpfcADKgcnvYAjMv6rVr6mh3zwOXdtPTGy720dEIXcJbCVJTDpsYmVjmcpTAV5bCpsYlVDmcpTEU5bGpsYpXDWQpTUQ6bGptY5XCWwlSUw6bGJlY5nKUwFeWwqbGJVQ5nKUxFOWxqbGKVw1kKU1EOmxqbWOVwlsJUlMOmxiZWOZylMBVyWLPFppg5O52TeAAzPu8aejSgDV0Cy0wxD0lcIpk+1axxyGEDpo9ImPTEy6wJeKD5kODDHMZsO2O+qGvhgY33beCyDV2G5n5Ga9V+bA0ZAJKaiGddJky7td9DO0RzdgWZvwF9NkH7VCrSmAAAAABJRU5ErkJggg==" />
        <path
           d="M 1.3333333,0 H 44.493068 v 0 c 0.326552,0 0.64175,0.11983809 0.885818,0.33678758 L 53.552485,7.602209 v 0 C 53.837136,7.8552322 54,8.2179043 54,8.5987548 v 44.0679122 0 C 54,53.403046 53.403046,54 52.666667,54 H 1.3333333 v 0 C 0.59695367,54 0,53.403046 0,52.666667 v -51.3333337 0 C 0,0.59695367 0.59695367,0 1.3333333,0 Z"
           id="Rectangle-118"
           inkscape:connector-curvature="0"
           style="fill:url(#linearGradient-1)" />
        <path
           d="M 54,30.857053 V 8.0474394 C 54,7.6451051 53.818325,7.2642836 53.505618,7.0111295 L 45.212057,0.29702341 C 44.974679,0.10485201 44.678521,0 44.373106,0 V 0 H 1.3333333 V 0 C 0.59695367,0 0,0.59695367 0,1.3333333 v 0 V 27.5 2.3333333 C 0,1.5969537 0.59695367,1 1.3333333,1 V 1 H 44.373106 v 0 c 0.305415,0 0.601573,0.104852 0.838951,0.2970234 l 8.293561,6.7141061 C 53.818325,8.2642836 54,8.6451051 54,9.0474394 Z"
           id="Combined-Shape"
           inkscape:connector-curvature="0"
           style="fill:#9af300" />
        <path
           d="M 54,29.857053 V 52.666667 C 54,53.403046 53.403046,54 52.666667,54 H 1.3333333 C 0.59695367,54 0,53.403046 0,52.666667 V 26.5 51.666667 C 0,52.403046 0.59695367,53 1.3333333,53 H 52.666667 C 53.403046,53 54,52.403046 54,51.666667 Z"
           id="path21"
           inkscape:connector-curvature="0"
           style="fill:#4b9000" />
      </g>
      <g
         id="Group"
         transform="translate(16,16)"
         style="fill-rule:nonzero">
        <path
           d="M 7,21 V 12 H 7.04126 C 7.1880329,12.574906 7.7093734,13 8.33,13 H 25 V 12.5 21.665 21.33 C 25,20.595461 24.404539,20 23.67,20 H 7 Z M 30.67,32 H 1.33 C 0.59546128,32 0,31.404539 0,30.67 V 26.33 C 0,25.595461 0.59546128,25 1.33,25 H 23.67 C 24.404539,25 25,24.404539 25,23.67 V 13 h 5.67 C 31.404539,13 32,13.595461 32,14.33 V 30.67 C 32,31.404539 31.404539,32 30.67,32 Z M 7,9.33 V 20 H 1.33 C 0.59546128,20 0,19.404539 0,18.67 v -16.34 0 C 0,1.5954613 0.59546128,1 1.33,1 H 30.67 C 31.404539,1 32,1.5954613 32,2.33 V 6.67 C 32,7.4045387 31.404539,8 30.67,8 H 8.33 C 7.5954613,8 7,8.5954613 7,9.33 Z"
           id="path24"
           inkscape:connector-curvature="0"
           style="fill:#58aa00" />
        <path
           d="M 7,20 V 11 H 7.04126 C 7.1880329,11.574906 7.7093734,12 8.33,12 H 25 V 11.5 20.665 20.33 C 25,19.595461 24.404539,19 23.67,19 H 7 Z"
           id="path26"
           inkscape:connector-curvature="0"
           style="fill:url(#linearGradient-2)" />
        <path
           d="M 30.67,31 H 1.33 v 0 C 0.59546128,31 0,30.404539 0,29.67 v -4.34 0 C 0,24.595461 0.59546128,24 1.33,24 h 22.34 v 0 C 24.404539,24 25,23.404539 25,22.67 V 12 h 5.67 v 0 c 0.734539,0 1.33,0.595461 1.33,1.33 v 16.34 0 C 32,30.404539 31.404539,31 30.67,31 Z M 7,8.33 V 19 H 1.33 v 0 C 0.59546128,19 0,18.404539 0,17.67 v -16.34 0 C 0,0.59546128 0.59546128,0 1.33,0 H 30.67 V 0 C 31.404539,0 32,0.59546128 32,1.33 v 4.34 0 C 32,6.4045387 31.404539,7 30.67,7 H 8.33 V 7 C 7.5954613,7 7,7.5954613 7,8.33 Z"
           id="path28"
           inkscape:connector-curvature="0"
           style="fill:#ffffff" />
        <path
           d="M 30.67,31 H 1.33 v 0 C 0.59546128,31 0,30.404539 0,29.67 v -3.34 0 C 0,25.595461 0.59546128,25 1.33,25 h 22.34 v 0 C 24.404539,25 25,24.404539 25,23.67 V 13 h 5.67 v 0 c 0.734539,0 1.33,0.595461 1.33,1.33 v 15.34 0 C 32,30.404539 31.404539,31 30.67,31 Z M 7,8.33 V 19 H 1.33 v 0 C 0.59546128,19 0,18.404539 0,17.67 v -15.34 0 C 0,1.5954613 0.59546128,1 1.33,1 H 30.67 V 1 C 31.404539,1 32,1.5954613 32,2.33 v 3.34 0 C 32,6.4045387 31.404539,7 30.67,7 H 8.33 V 7 C 7.5954613,7 7,7.5954613 7,8.33 Z"
           id="path30"
           inkscape:connector-curvature="0"
           style="fill:#f7ffed" />
      </g>
    </g>
  </g>
</svg>
